src/icon/SVG/organization.svg

<!-- Generated by IcoMoon.io -->
<svg version="1.1" xmlns="http://www.w3.org/2000/svg" width="32" height="32" viewBox="0 0 32 32">
<title>organization</title>
<path d="M19.833 9.539c0 1.246 1.010 2.257 2.257 2.257s2.256-1.010 2.256-2.257c0-0.103-0.009-0.203-0.022-0.303l-2.234-0.402-2.233 0.402c-0.015 0.1-0.024 0.2-0.024 0.303z"></path>
<path d="M11.833 3.833h8.333v1.5h2.333v-3.833h-13v3.833h2.333z"></path>
<path d="M7.833 5.333v-2.099c0.488-0.198 0.833-0.675 0.833-1.235 0-0.736-0.597-1.333-1.333-1.333s-1.333 0.597-1.333 1.333c0 0.559 0.345 1.036 0.833 1.235v2.099h-1.5v26.667h6.667v-4h8v4h6.667v-26.667h-18.833zM15 26.439h-8v-4.773h8v4.773zM15 19.439h-8v-4.773h8v4.773zM15 12.439h-8v-4.772h8v4.772zM25 26.439h-8v-4.773h8v4.773zM25 19.439h-8v-4.773h8v4.773zM25 12.439h-8v-4.772h8v4.772z"></path>
<path d="M9.167 1.75c0 0.966-0.784 1.75-1.75 1.75s-1.75-0.784-1.75-1.75c0-0.967 0.784-1.75 1.75-1.75s1.75 0.783 1.75 1.75z"></path>
<path d="M0 30.667h4.167v1.333h-4.167v-1.333z"></path>
<path d="M27.833 30.667h4.167v1.333h-4.167v-1.333z"></path>
</svg>

<?xml version="1.0" encoding="utf-8"?>
<!-- Generator: Adobe Illustrator 15.0.2, SVG Export Plug-In . SVG Version: 6.00 Build 0)  -->
<!DOCTYPE svg PUBLIC "-//W3C//DTD SVG 1.1//EN" "http://www.w3.org/Graphics/SVG/1.1/DTD/svg11.dtd">
<svg version="1.1" id="Ebene_1" xmlns="http://www.w3.org/2000/svg" xmlns:xlink="http://www.w3.org/1999/xlink" x="0px" y="0px"
	 width="32px" height="32px" viewBox="0 0 32 32" enable-background="new 0 0 32 32" xml:space="preserve">
<title>organization</title>
<path d="M19.833,9.539c0,1.246,1.01,2.257,2.257,2.257s2.256-1.01,2.256-2.257c0-0.103-0.009-0.203-0.021-0.303L22.09,8.834
	l-2.232,0.402C19.842,9.336,19.833,9.436,19.833,9.539z M11.833,3.833h8.333v1.5h2.333V1.5h-13v3.833h2.333L11.833,3.833z
	 M7.833,5.333V3.234c0.488-0.198,0.833-0.675,0.833-1.235c0-0.736-0.597-1.333-1.333-1.333S6,1.263,6,1.999
	c0,0.559,0.345,1.036,0.833,1.235v2.099h-1.5V32H12v-4h8v4h6.667V5.333H7.833L7.833,5.333z M15,26.439H7v-4.773h8V26.439z
	 M15,19.439H7v-4.773h8V19.439z M15,12.439H7V7.667h8V12.439z M25,26.439h-8v-4.773h8V26.439z M25,19.439h-8v-4.773h8V19.439z
	 M25,12.439h-8V7.667h8V12.439z M9.167,1.75c0,0.966-0.784,1.75-1.75,1.75s-1.75-0.784-1.75-1.75C5.667,0.783,6.451,0,7.417,0
	S9.167,0.783,9.167,1.75z M0,30.667h4.167V32H0V30.667z M27.833,30.667H32V32h-4.167V30.667z"/>
</svg>
